X: 544
T: Walczyk Lubelski
B: incoming
M:3/4
L:1/8
Q: 1/4=120
K:G
V:1 
|:"G"d2d2d2     | "C"c2"G"B4| "G"d2B4   | "D"A2"G"G4 |\
  "G"d2d2d2     | "C"c2"G"B4| "G"d2B4   | "D"A2"G"G4 :|
|:"G"B2B2B2     | "D"A2"G"G4| "G"d2d2d2 | "C"c2"G"B4 |\
  "Em"e2e2"Bm"f2| "G"g2"G"d4| "C"c2"G"B4| "D"A2"G"G4 :|
% abcbook-tune_id 63cb08436138a2be626adc5e
% abcbook-tune_composer_id 
% abcbook-boost 0
% abcbook-difficulty 0
% abcbook-tags balkan dances
% abcbook-tablature 
% abcbook-transpose 
% abcbook-tuning 
% abcbook-lastupdated 1674250307968
% abcbook-soundfonts 
% abcbook-repeats 1


